X: 3
T: Rosin the Bow
R: jig
M: 6/8
L: 1/8
N: Original in A
K: G
D \
| "G"GFG BAG | "G"d3 "C"e3 | "G"dBG GAB \
| "Em"E3- "Am"E2D | "G"GFG BAG | "G"d3 "C"e3 | "G"dcB "C"cBA |
| "G"GAG GAB | "G"dBG "D7"AGF | "G"G3- G2 \
:: B/c/ \
| "G"dBd def | "C"g2e g2e | "G"dBG GAB | "Em"E3- "Am"E2D |
| "G"GFG BAG | "G"d3 "C"e3 \
| "G"dcB "C"cBA | "G"GAG GAB | "G"dBG "D7"AGF | "G"G3- G2 :|
